!! 00010] TT[TB
!! Eigene Aufnahme
!!!OTL: Jia nÅ ge Song of the bride setting out
!!!ARE: Neimeng
!! Ethnic Group: Menggu
!! MM, S. 546
!!!SCT: C0546
!!!YEM: Copyright 1995, estate of Helmut Schaffrath.
**kern
*ICvox
*Ivox
*M2/4
*k[]
*C:
{8e
8e
8g
8g
=1
8g
8d
4e
=2
8c
8c
8d
8g
=3
16c
8c
16A
4G}
=4
{8e
8e
8g
8g
=5
8g
8d
4e
=6
8c
8c
8d
8g
=7
16c
8c
16A
4G}
=8
{8e
16e
16d
8e
8cc
=9
4.g
8cc}
=10
{8e
16e
16d
8e
8cc
=11
2g}
=12
{8.c
16A
16G
16A
8e
=13
2c}
==
!!!AGN: NN
!! 3. Zeile lt. Gesang ohne End +1. Variante.
!!!ONB: ESAC (Essen Associative Code) Database: CHINA
!!!AMT: simple duple
!!!AIN: vox
!!!EED: Helmut Schaffrath
!!!EEV: 1.0
*-
